X:1
T:Title
%%score 1 { ( 2 5 ) | ( 3 4 ) }
L:1/8
Q:1/4=114
M:3/2
K:B
V:1 treble nm="Chant\nVoice"
V:2 treble nm="Piano"
V:5 treble 
V:3 bass 
V:4 bass 
V:1
"^Moderato" z12 | z12 | F2 F2 F3 F F2 F2 | d3 c B4 B2 c2 | d3 c B4 d4 | A6- A z A4 | %6
 A2 A2 A3 A A2 A2 | d4 D2 D2 F2 ^E2 | ^E4- E z E2 G2 F2 | ^E4- E2 z2 z4 | A2 A2 A3 A A2 A2 | %11
 A4 A2 A2 A2 ^B2 | c4- c z c2 c2 ^B2 | ^B4 B2 B2 c2 d2 | e6 G2 B2 c2 | c6 F2 A2 c2 | %16
 d4- d2 D2 F2 ^E2 | ^E4- E2 z2 z4 | z2 ^^c2 ^c3 ^B A3 G | ^^F4- F2 z2 z4 | z2 ^^G2 ^B2 ^e4 e2 | %21
 ^e4 e2 ^^c2 A2 ^B2 | ^^c4 ^^G4 ^^F4 | ^E4- E2 z2 z4 | z4 z4 ^^C4 | ^E8- E4 | D4 z4 z4 | %27
 !fermata!z12 |] %28
V:2
 z2 z [DFd] [DFd]2 z2 z [EFc] [EFc]2 | z2 z [DFd] [DFd]2 z2 z [DFd] [DFd]2 | %2
 z2 z [DFd] [DFd]2 z2 z [EFc] [EFc]2 | z2 z [DFd] [DFd]2 z2 z [DFd] [DFd]2 | %4
 z2 z [DGd] [DGd]2 z2 z [DGd] [DGd]2 | z2 z [DGd] [DGd]2 z2 z [DFd] [DFd]2 | %6
 z2 z [^EG^e] [EGe]2 z2 z [EGe] [EGe]2 | z2 z [DFd] [DFd]2 z2 z [^^C^EA] [CEA]2 | %8
 z2 z [^^CGA] [CGA]2 z2 z [DFA] [DFA]2 | z2 z [^^CGA] [CGA]2 z2 z [DFA] [DFA]2 | %10
 z2 z [FAf] [FAf]2 z2 z [^EA^e] [EAe]2 | z2 z [FAf] [FAf]2 z2 z [FAf] [FAf]2 | %12
 z2 z [EGe] [EGe]2 z2 z [D^^Fd] [DFd]2 | z2 z [DGd] [DGd]2 z2 z [DGd] [DGd]2 | %14
 z2 z [EGe] [EGe]2 z2 z [EGe] [EGe]2 | z2 z [EFe] [EFe]2 z2 z [EFe] [EFe]2 | %16
 z2 z [DFd] [DFd]2 z2 z [D^^Gd] [DGd]2 | z2 z [D^^Gd] [DGd]2 z2 z [^^C^E^^c] [CEc]2 | %18
 z2 z [^^C^E^^c] [CEc]2 z2 z [CEc] [CEc]2 | z2 z [D^^Fd] [DFd]2 z2 z [DFd] [DFd]2 | %20
 z2 z [^E^^G^e] [EGe]2 z2 z [EGe] [EGe]2 | z2 z [^E^^G^e] [EGe]2 z2 z [^EAe] [EAe]2 | %22
 z2 z [^E^^c^e] [Ece]2 z2 z [^^D^B^^d] [DBd]2 | z2 z [^^C^^c] [Cc]2 z2 z [^B,^B] [B,B]2 | %24
 z2 z [^^C^^c] [Cc]2 z2 z [Cc] [Cc]2 | z2 z [^^C^^c] [Cc]2 z2 z [Cc] [Cc]2 | %26
 z2 z [DAd] [DAd]2 z2 z [DAd] [DAd]2 | !fermata![D^^Fd]12 |] %28
V:3
 z B,B, z z2 B,B, z B,B, z | z B,B, z z2 B,B, z B,B, z | z B,B, z z2 B,B, z B,B, z | %3
 z B,B, z z2 B,B, z B,B, z | z B,B, z z2 B,B, z B,B, z | z A,A, z z2 A,A, z A,A, z | %6
 z A,A, z z2 A,A, z A,A, z | z A,A, z z2 A,A, z A,A, z | z A,A, z z2 A,A, z A,A, z | %9
 z A,A, z z2 A,A, z A,A, z | z CC z z2 CC z CC z | z CC z z2 ^B,B, z B,B, z | %12
 z A,A, z z2 A,A, z A,A, z | z G,G, z z2 G,G, z G,G, z | z CC z z2 B,B, z B,B, z | %15
 z A,A, z z2 A,A, z A,A, z | z B,B, z z2 B,B, z B,B, z | z ^^G,G, z z2 G,G, z G,G, z | %18
 z A,A, z z2 A,A, z A,A, z | z A,A, z z2 A,A, z A,A, z | z ^B,B, z z2 B,B, z B,B, z | %21
 z ^^CC z z2 CC z CC z | z ^^CC z z2 CC z ^B,B, z | z A,A, z z2 A,A, z ^^G,G, z | %24
 z A,A, z z2 A,A, z A,A, z | z G,G, z z2 G,G, z G,G, z | z ^^F,F, z z2 F,F, z F,F, z | %27
 !fermata![D,,D,]12 |] %28
V:4
 B,,4- B,, z F,,4- F,, z | B,,4- B,, z F,,4- F,, z | B,,4- B,, z F,,4- F,, z | %3
 B,,4- B,, z F,,4- F,, z | B,,4- B,, z B,,4- B,, z | A,,4- A,, z F,,4- F,, z | %6
 A,,4- A,, z ^^C,4- C, z | D,4- D, z ^E,4- E, z | A,,4- A,, z D,4- D, z | A,,4- A,, z D,4- D, z | %10
 C,4- C, z G,4- G, z | F,4- F, z D,4- D, z | E,4- E, z D,4- D, z | G,,4- G,, z ^B,,4- B,, z | %14
 C,4- C, z G,4- G, z | C,4- C, z F,4- F, z | B,,4- B,, z F,4- F, z | B,,4- B,, z ^E,4- E, z | %18
 A,,4- A,, z ^^C,4- C, z | D,4- D, z ^^F,4- F, z | ^E,4- E, z ^^G,4- G, z | A,4- A, z ^^G,4- G, z | %22
 ^^F,4- F, z ^B,4- B, z | ^E,4- E, z E,4- E, z | ^E,4- E, z E,4- E, z | A,,4- A,, z z2 A,,4 | %26
 D,4- D, z z2 z4 | x12 |] %28
V:5
 x12 | x12 | x12 | x12 | x12 | x12 | x12 | x12 | x12 | x12 | x12 | x12 | x12 | x12 | x12 | x12 | %16
 x12 | x12 | x12 | x12 | x12 | x12 | x12 | x12 | x12 | z4 [GA]8 | [^^FA]8 z4 | x12 |] %28

